X: 43626
T: Zakynthos, The
R: jig
M: 6/8
K: Aminor
[P:A]{g}a2a gag|e2a a2g|ecc BcB|AFF "(~)"F3|EAB cBA|
FAB cBA|"@5,-24(~)"B2 [eB] edB|"(~)"B2d cBA:|:[P:B]EAB cBA|FAB cBA|
"@6,18(~)"B2B edB|"(~)"B2d cBA|EAB cBA|FAB cBA|"@6,18(~)"B2B edB|
[1 B2A A3:|2 B2A ABc|:[P:C (last time x3, then Coda)] d2 d2 c2|dc2 B2A|d2 d2 cd|
"(~)"B3 "(~)"B2A|d2 d2 c2|dc2 B2A|d2 d2 cd|1 e3 -e2e:|2 e3 -e3||
O"@-41,20 Coda" {g}a2a gag|e2a a2g|.a2 .a2 .a2|a4 z2||

